icons/Prometheus.svg

<svg xmlns="http://www.w3.org/2000/svg" width="256" height="256" fill="none" viewBox="0 0 256 256"><rect width="256" height="256" fill="#E6522C" rx="60"/><path fill="#fff" d="M128.355 228C110.452 228 95.9363 216.04 95.9363 201.292H160.774C160.774 216.038 146.259 228 128.355 228ZM181.9 192.447H74.8037V173.027H181.902L181.9 192.447ZM181.516 163.032H75.1093C74.7554 162.624 74.3935 162.221 74.0517 161.807C63.0892 148.496 60.5075 141.547 58.0001 134.465C57.9579 134.232 71.293 137.19 80.7494 139.317C80.7494 139.317 85.6153 140.443 92.7292 141.74C85.8988 133.734 81.8432 123.555 81.8432 113.152C81.8432 90.3121 99.3606 70.3537 93.0409 54.2218C99.1917 54.7224 105.771 67.203 106.215 86.717C112.754 77.6808 115.491 61.1788 115.491 51.0609C115.491 40.5851 122.393 28.4162 129.298 28C123.143 38.1441 130.893 46.8404 137.781 68.4134C140.365 76.5166 140.035 90.1533 142.03 98.8014C142.692 80.8396 145.78 54.6319 157.175 45.5837C152.148 56.9785 157.919 71.2364 161.866 78.091C168.234 89.1499 172.094 97.5286 172.094 113.375C172.094 124 168.171 134.003 161.554 141.823C169.078 140.411 174.274 139.138 174.274 139.138L198.708 134.371C198.708 134.371 195.159 148.971 181.516 163.032Z"/></svg>

<svg xmlns="http://www.w3.org/2000/svg" width="256" height="256" fill="none" viewBox="0 0 256 256"><rect width="256" height="256" fill="#E6522C" rx="60"/><path fill="#fff" d="M128.35 228c-17.9 0-32.41-11.96-32.41-26.7h64.83c0 14.74-14.51 26.7-32.42 26.7m53.55-35.55H74.8v-19.42h107.1zm-.38-29.42H75.1q-.54-.6-1.06-1.22C63.1 148.5 60.51 141.55 58 134.47c-.04-.24 13.3 2.72 22.75 4.85 0 0 4.87 1.12 11.98 2.42-6.83-8-10.89-18.19-10.89-28.59 0-22.84 17.52-42.8 11.2-58.93 6.15.5 12.73 12.98 13.17 32.5 6.54-9.04 9.28-25.54 9.28-35.66 0-10.47 6.9-22.64 13.8-23.06-6.15 10.14 1.6 18.84 8.5 40.41 2.58 8.1 2.25 21.74 4.24 30.4.66-17.97 3.75-44.18 15.15-53.23-5.03 11.4.74 25.66 4.69 32.51 6.36 11.06 10.22 19.44 10.22 35.28a44 44 0 0 1-10.54 28.45 263 263 0 0 0 12.72-2.68l24.44-4.77s-3.55 14.6-17.2 28.66"/></svg>
